( Generated by Carbide Copper )
( Material Size )
( X= 20.320, Y= 20.320, Z= 1.580 )
( )
G17
G21
G54
G90
( Contour )
G0 Z3.000
M03 S1000
G0 X11Y19.022 
G01 F50 Z0
G01 F50 Z-0.100
G01F50X11.122 Y17.504
X11.878 Y17.504
X11.878 Y19.022
X11.122 Y19.022
G0 Z3.000
G0 X11.922 Y19.022
G0 Z3.000
G01 F50 Z0
G01 F50 Z-0.100
G01F50X11.922 Y17.504
X12.678 Y17.504
X12.678 Y19.022
X11.922 Y19.022
G0 Z3.000
G0 X9.522 Y19.022
G0 Z3.000
G01 F50 Z0
G01 F50 Z-0.100
G01F50X9.522 Y17.504
X10.278 Y17.504
X10.278 Y19.022
X9.522 Y19.022
G0 Z3.000
G0 X10.322 Y19.022
G0 Z3.000
G01 F50 Z0
G01 F50 Z-0.100
G01F50X10.322 Y17.504
X11.078 Y17.504
X11.078 Y19.022
X10.322 Y19.022
G0 Z3.000
G0 X14.322 Y19.022
G0 Z3.000
G01 F50 Z0
G01 F50 Z-0.100
G01F50X14.322 Y17.504
X15.078 Y17.504
X15.078 Y19.022
X14.322 Y19.022
G0 Z3.000
G0 X15.122 Y19.022
G0 Z3.000
G01 F50 Z0
G01 F50 Z-0.100
G01F50X15.122 Y17.504
X15.878 Y17.504
X15.878 Y19.022
X15.122 Y19.022
G0 Z3.000
G0 X12.722 Y19.022
G0 Z3.000
G01 F50 Z0
G01 F50 Z-0.100
G01F50X12.722 Y17.504
X13.478 Y17.504
X13.478 Y19.022
X12.722 Y19.022
G0 Z3.000
G0 X13.522 Y19.022
G0 Z3.000
G01 F50 Z0
G01 F50 Z-0.100
G01F50X13.522 Y17.504
X14.278 Y17.504
X14.278 Y19.022
X13.522 Y19.022
G0 Z3.000
G0 X16.233 Y17.148
G0 Z3.000
G01 F50 Z0
G01 F50 Z-0.100
G01F50X16.233 Y16.392
X17.752 Y16.392
X17.752 Y17.148
X16.233 Y17.148
G0 Z3.000
G0 X7.648 Y17.148
G0 Z3.000
G01 F50 Z0
G01 F50 Z-0.100
G01F50X7.648 Y16.392
X9.167 Y16.392
X9.167 Y17.148
X7.648 Y17.148
G0 Z3.000
G0 X16.233 Y16.348
G0 Z3.000
G01 F50 Z0
G01 F50 Z-0.100
G01F50X16.233 Y15.592
X17.752 Y15.592
X17.752 Y16.348
X16.233 Y16.348
G0 Z3.000
G0 X7.648 Y16.348
G0 Z3.000
G01 F50 Z0
G01 F50 Z-0.100
G01F50X7.648 Y15.592
X9.167 Y15.592
X9.167 Y16.348
X7.648 Y16.348
G0 Z3.000
G0 X16.233 Y15.548
G0 Z3.000
G01 F50 Z0
G01 F50 Z-0.100
G01F50X16.233 Y14.792
X17.752 Y14.792
X17.752 Y15.548
X16.233 Y15.548
G0 Z3.000
G0 X7.648 Y15.548
G0 Z3.000
G01 F50 Z0
G01 F50 Z-0.100
G01F50X7.648 Y14.792
X9.167 Y14.792
X9.167 Y15.548
X7.648 Y15.548
G0 Z3.000
G0 X1.866 Y15.444
G0 Z3.000
G01 F50 Z0
G01 F50 Z-0.100
G01F50X1.866 Y14.196
X3.214 Y14.196
X3.214 Y14.525
X4.055 Y14.532
X6.863 Y11.724
X6.916 Y11.686
X6.979 Y11.658
X7.046 Y11.644
X7.648 Y11.644
X7.648 Y11.592
X9.167 Y11.592
X9.167 Y12.348
X7.648 Y12.348
X7.648 Y12.296
X7.216 Y12.296
X4.408 Y15.105
X4.355 Y15.143
X4.292 Y15.171
X4.225 Y15.185
X3.214 Y15.185
X3.214 Y15.444
X1.866 Y15.444
G0 Z3.000
G0 X16.233 Y14.748
G0 Z3.000
G01 F50 Z0
G01 F50 Z-0.100
G01F50X16.233 Y13.992
X17.752 Y13.992
X17.752 Y14.748
X16.233 Y14.748
G0 Z3.000
G0 X7.648 Y14.748
G0 Z3.000
G01 F50 Z0
G01 F50 Z-0.100
G01F50X7.648 Y13.992
X9.167 Y13.992
X9.167 Y14.748
X7.648 Y14.748
G0 Z3.000
G0 X16.233 Y13.948
G0 Z3.000
G01 F50 Z0
G01 F50 Z-0.100
G01F50X16.233 Y13.192
X17.752 Y13.192
X17.752 Y13.948
X16.233 Y13.948
G0 Z3.000
G0 X7.648 Y13.948
G0 Z3.000
G01 F50 Z0
G01 F50 Z-0.100
G01F50X7.648 Y13.192
X9.167 Y13.192
X9.167 Y13.948
X7.648 Y13.948
G0 Z3.000
G0 X1.866 Y13.744
G0 Z3.000
G01 F50 Z0
G01 F50 Z-0.100
G01F50X1.866 Y12.496
X3.214 Y12.496
X3.214 Y12.794
X4.524 Y12.794
X6.393 Y10.924
X6.446 Y10.886
X6.509 Y10.858
X6.576 Y10.844
X7.648 Y10.844
X7.648 Y10.792
X9.167 Y10.792
X9.167 Y11.548
X7.648 Y11.548
X7.648 Y11.496
X6.746 Y11.496
X4.877 Y13.366
X4.824 Y13.404
X4.761 Y13.432
X4.694 Y13.446
X3.214 Y13.446
X3.214 Y13.744
X1.866 Y13.744
G0 Z3.000
G0 X16.233 Y13.148
G0 Z3.000
G01 F50 Z0
G01 F50 Z-0.100
G01F50X16.233 Y12.392
X17.752 Y12.392
X17.752 Y13.148
X16.233 Y13.148
G0 Z3.000
G0 X7.648 Y13.148
G0 Z3.000
G01 F50 Z0
G01 F50 Z-0.100
G01F50X7.648 Y12.392
X9.167 Y12.392
X9.167 Y13.148
X7.648 Y13.148
G0 Z3.000
G0 X16.233 Y12.348
G0 Z3.000
G01 F50 Z0
G01 F50 Z-0.100
G01F50X16.233 Y11.592
X17.752 Y11.592
X17.752 Y12.348
X16.233 Y12.348
G0 Z3.000
G0 X16.233 Y11.548
G0 Z3.000
G01 F50 Z0
G01 F50 Z-0.100
G01F50X16.233 Y10.792
X17.752 Y10.792
X17.752 Y11.548
X16.233 Y11.548
G0 Z3.000
G0 X13.522 Y10.437
G0 Z3.000
G01 F50 Z0
G01 F50 Z-0.100
G01F50X13.522 Y8.918
X14.278 Y8.918
X14.278 Y10.437
X13.522 Y10.437
G0 Z3.000
G0 X12.722 Y10.437
G0 Z3.000
G01 F50 Z0
G01 F50 Z-0.100
G01F50X12.722 Y8.918
X12.773 Y8.918
X12.773 Y8.484
X12.779 Y8.422
X12.800 Y8.357
X12.835 Y8.297
X12.874 Y8.254
X13.389 Y7.739
X13.389 Y7.174
X13.026 Y7.174
X13.026 Y5.526
X14.374 Y5.526
X14.374 Y7.174
X14.043 Y7.174
X14.043 Y7.881
X14.037 Y7.942
X14.016 Y8.007
X13.981 Y8.067
X13.942 Y8.110
X13.427 Y8.625
X13.427 Y8.918
X13.478 Y8.918
X13.478 Y10.437
X12.722 Y10.437
G0 Z3.000
G0 X15.122 Y10.437
G0 Z3.000
G01 F50 Z0
G01 F50 Z-0.100
G01F50X15.122 Y8.918
X15.878 Y8.918
X15.878 Y10.437
X15.122 Y10.437
G0 Z3.000
G0 X14.322 Y10.437
G0 Z3.000
G01 F50 Z0
G01 F50 Z-0.100
G01F50X14.322 Y8.918
X15.078 Y8.918
X15.078 Y10.437
X14.322 Y10.437
G0 Z3.000
G0 X10.322 Y10.437
G0 Z3.000
G01 F50 Z0
G01 F50 Z-0.100
G01F50X10.322 Y8.918
X11.078 Y8.918
X11.078 Y10.437
X10.322 Y10.437
G0 Z3.000
G0 X9.522 Y10.437
G0 Z3.000
G01 F50 Z0
G01 F50 Z-0.100
G01F50X9.522 Y8.918
X10.278 Y8.918
X10.278 Y10.437
X9.522 Y10.437
G0 Z3.000
G0 X11.922 Y10.437
G0 Z3.000
G01 F50 Z0
G01 F50 Z-0.100
G01F50X11.922 Y8.918
X11.973 Y8.918
X11.973 Y8.625
X11.458 Y8.111
X11.419 Y8.067
X11.384 Y8.007
X11.363 Y7.942
X11.357 Y7.881
X11.357 Y7.174
X11.026 Y7.174
X11.026 Y5.526
X12.374 Y5.526
X12.374 Y7.174
X12.011 Y7.174
X12.011 Y7.739
X12.526 Y8.254
X12.565 Y8.297
X12.600 Y8.357
X12.621 Y8.422
X12.627 Y8.484
X12.627 Y8.918
X12.678 Y8.918
X12.678 Y10.437
X11.922 Y10.437
G0 Z3.000
G0 X11.122 Y10.437
G0 Z3.000
G01 F50 Z0
G01 F50 Z-0.100
G01F50X11.122 Y8.918
X11.878 Y8.918
X11.878 Y10.437
X11.122 Y10.437
G0 Z3.000
G0 X4.695 Y8.741
G0 Z3.000
G01 F50 Z0
G01 F50 Z-0.100
G01F50X3.943 Y8.581
X3.240 Y8.268
X2.617 Y7.815
X2.102 Y7.244
X1.717 Y6.577
X1.480 Y5.845
X1.399 Y5.080
X1.480 Y4.315
X1.717 Y3.583
X2.102 Y2.917
X2.617 Y2.345
X3.240 Y1.892
X3.943 Y1.579
X4.695 Y1.419
X5.465 Y1.419
X6.217 Y1.579
X6.920 Y1.892
X7.543 Y2.345
X8.058 Y2.917
X8.443 Y3.583
X8.680 Y4.315
X8.761 Y5.080
X8.680 Y5.845
X8.443 Y6.577
X8.058 Y7.244
X7.543 Y7.815
X6.920 Y8.268
X6.217 Y8.581
X5.465 Y8.741
X4.695 Y8.741
G0 Z3.000
( Drilling )
G00 X5.080 Y5.080
G0 Z3.000
G01 F50 Z-0.10
G00 Z3.000
G0 X20 Y 0
M05
M30
%
